symbols/web/assured_workload/materialsymbolsrounded/assured_workload_wght600gradN25_20px.svg

<svg xmlns="http://www.w3.org/2000/svg" height="20" width="20"><path d="M4.979 14.125q-.396 0-.708-.302-.313-.302-.313-.698V9.542q0-.396.313-.698.312-.302.708-.302.396 0 .698.302.302.302.302.698v3.583q0 .396-.302.698-.302.302-.698.302Zm5.063 0q-.396 0-.698-.302-.302-.302-.302-.698V9.542q0-.396.302-.698.302-.302.698-.302.375 0 .677.302.302.302.302.698v3.583q0 .396-.302.698-.302.302-.677.302ZM2.812 7.25q-.541 0-.916-.365-.375-.364-.375-.906 0-.354.271-.812.27-.459.562-.625l6.688-3.354q.25-.126.489-.178.24-.052.49-.052t.489.052q.24.052.49.178l6.667 3.354q.291.166.562.614.271.448.271.823 0 .542-.375.906-.375.365-.917.365Zm3.313-2.188h7.771l-3.875-1.916ZM2.604 17.604q-.416 0-.75-.333-.333-.333-.333-.771 0-.417.333-.75.334-.333.75-.333h8.5q.021.5.094 1.073.073.572.26 1.114Zm11.438-7.146v-.916q0-.396.302-.698.302-.302.698-.302.354 0 .635.25t.344.562v.125Zm2.625 10.23q-1.688-.438-2.782-1.938-1.093-1.5-1.093-3.375v-1.792q0-.312.166-.562.167-.25.438-.396l2.792-1.417q.25-.104.479-.104.229 0 .479.104l2.792 1.417q.27.146.437.396.167.25.167.562v1.792q0 1.875-1.094 3.375t-2.781 1.938Zm2.271-6.167q.083-.083.083-.209 0-.124-.083-.208-.084-.083-.219-.094-.136-.01-.219.094L16.125 16.5l-1.333-1.333q-.084-.084-.209-.094-.125-.011-.208.073-.083.083-.083.219 0 .135.083.218l.979 1q.167.146.375.229.209.084.396.084.208 0 .417-.084.208-.083.354-.229ZM6.125 5.062h7.771Z"/></svg>

<svg xmlns="http://www.w3.org/2000/svg" height="20" width="20"><path d="M4.979 14.125Q4.583 14.125 4.271 13.823Q3.958 13.521 3.958 13.125V9.542Q3.958 9.146 4.271 8.844Q4.583 8.542 4.979 8.542Q5.375 8.542 5.677 8.844Q5.979 9.146 5.979 9.542V13.125Q5.979 13.521 5.677 13.823Q5.375 14.125 4.979 14.125ZM10.042 14.125Q9.646 14.125 9.344 13.823Q9.042 13.521 9.042 13.125V9.542Q9.042 9.146 9.344 8.844Q9.646 8.542 10.042 8.542Q10.417 8.542 10.719 8.844Q11.021 9.146 11.021 9.542V13.125Q11.021 13.521 10.719 13.823Q10.417 14.125 10.042 14.125ZM2.812 7.25Q2.271 7.25 1.896 6.885Q1.521 6.521 1.521 5.979Q1.521 5.625 1.792 5.167Q2.062 4.708 2.354 4.542L9.042 1.188Q9.292 1.062 9.531 1.01Q9.771 0.958 10.021 0.958Q10.271 0.958 10.51 1.01Q10.75 1.062 11 1.188L17.667 4.542Q17.958 4.708 18.229 5.156Q18.5 5.604 18.5 5.979Q18.5 6.521 18.125 6.885Q17.75 7.25 17.208 7.25ZM6.125 5.062H13.896L10.021 3.146ZM2.604 17.604Q2.188 17.604 1.854 17.271Q1.521 16.938 1.521 16.5Q1.521 16.083 1.854 15.75Q2.188 15.417 2.604 15.417H11.104Q11.125 15.917 11.198 16.49Q11.271 17.062 11.458 17.604ZM14.042 10.458V9.542Q14.042 9.146 14.344 8.844Q14.646 8.542 15.042 8.542Q15.396 8.542 15.677 8.792Q15.958 9.042 16.021 9.354V9.479ZM16.667 20.688Q14.979 20.25 13.885 18.75Q12.792 17.25 12.792 15.375V13.583Q12.792 13.271 12.958 13.021Q13.125 12.771 13.396 12.625L16.188 11.208Q16.438 11.104 16.667 11.104Q16.896 11.104 17.146 11.208L19.938 12.625Q20.208 12.771 20.375 13.021Q20.542 13.271 20.542 13.583V15.375Q20.542 17.25 19.448 18.75Q18.354 20.25 16.667 20.688ZM18.938 14.521Q19.021 14.438 19.021 14.312Q19.021 14.188 18.938 14.104Q18.854 14.021 18.719 14.01Q18.583 14 18.5 14.104L16.125 16.5L14.792 15.167Q14.708 15.083 14.583 15.073Q14.458 15.062 14.375 15.146Q14.292 15.229 14.292 15.365Q14.292 15.5 14.375 15.583L15.354 16.583Q15.521 16.729 15.729 16.812Q15.938 16.896 16.125 16.896Q16.333 16.896 16.542 16.812Q16.75 16.729 16.896 16.583ZM6.125 5.062H10.021H13.896Z"/></svg>
